X: 210
T: the Boys of Carrigallen
B: O'Neill's 210
N: "Cheerful"
N: "Collected by J.O'Neill"
Z: 1997 by John Chambers <jc@trillian.mit.edu>
M: 6/8
L: 1/8
K:Am
E \
| A2E A>(Bc/d/) | e>de (A2B/A/) | G2D G>(AB/c/) | d>cd G2B |
| A2E ABd | e2^f g>fg | edc Bcd | ecA A2 :|
|| a \
| a^ga A2a | a^ga A2g | g^fg G2=g | g^fg G2B |
| c2c d2d | e^fg a3 | edc Bcd | ecA A2 :|


